X: 554
T:Earl's Chair, The
R:Reel
C:Trad. O'Neill's 1850
O:Ireland
M:4/4
L:1/8
K:D
|:"Bm"B2 !trill!B3 AFA|!turn!B3 d BAFB|"D"AF !turn!F2 DF !turn!F2|AddB ADFA|
"Bm"!turn!B2!trill!B2 BAFA|!turn!B2 dB BAFB|"D"AFAB defd|"Em"!trill!edef "D"d3 z:|
|:"Em"e2ef "Bm"d2d!trill!f|"Em"edef "Bm"dB A2|"Em"!trill!edef "D"!turn!d3e|"Bm"!trill!fedB "D"ADFA|
"Em"!trill!e2 df "Bm"eB !turn!B2|"Em"gB !turn!B2 "D"defg|"Bm"afbf "D"afeg|"Bm"!trill!fedB "D"ADFA:|


